homeworks/mykola.yarovenko_MykYarovenko36/10-markup/flex/assets/icons/sprite.svg

<svg xmlns="http://www.w3.org/2000/svg">
	<defs>
		<symbol id="logo" viewBox="0 0 50 50">
			<g>
				<circle fill="var(--circleColor)" cx="25" cy="25" r="25" />
				<text class="text" x="4" y="33" font-weight="400" font-family="'Rammetto One', cursive" font-size="var(--textSize)" fill="var(--textColor)">
					DW
				</text>
			</g>
		</symbol>
		<symbol id="logo-small" viewBox="0 0 50 50">
			<g>
				<circle fill="var(--circleColor)" cx="25" cy="25" r="25" />
				<text class="text" x="0" y="36" font-weight="400" fill="var(--textColor)" font-family="'Rammetto One', cursive" letter-spacing="2" font-size="var(--textSize)">
					DW
				</text>
			</g>
		</symbol>
		<symbol id="facebook" viewBox="0 0 36 36">
			<g>
				<circle cx="18" cy="18" r="18" fill="var(--circleColor)" />
				<path d="M19.6496 28V17.9988H22.6079L23 14.5524H19.6496L19.6546 12.8274C19.6546 11.9285 19.7461 11.4468 21.1296 11.4468H22.9791V8H20.0203C16.4663 8 15.2153 9.6719 15.2153 12.4835V14.5528H13V17.9992H15.2153V28H19.6496Z" fill="var(--textColor)" />
			</g>
		</symbol>
		<symbol id="tweeter" viewBox="0 0 36 36">
			<g>
				<circle cx="18" cy="18" r="18" fill="var(--circleColor)" />
				<path fill-rule="evenodd" clip-rule="evenodd" d="M17.7791 14.6391L17.74 13.9902C17.623 12.3087 18.6504 10.7727 20.2762 10.1769C20.8745 9.96507 21.8889 9.93859 22.5523 10.124C22.8123 10.2034 23.3066 10.4682 23.6577 10.7066L24.295 11.1435L24.9973 10.9184C25.3876 10.7992 25.9078 10.6006 26.1419 10.4682C26.363 10.3491 26.5581 10.2828 26.5581 10.3226C26.5581 10.5476 26.0769 11.3156 25.6737 11.7393C25.1274 12.3351 25.2835 12.3881 26.389 11.9909C27.0524 11.7658 27.0653 11.7658 26.9353 12.0173C26.8572 12.1498 26.454 12.6132 26.0248 13.0369C25.2965 13.7652 25.2575 13.8446 25.2575 14.4537C25.2575 15.3937 24.8153 17.3534 24.3731 18.4259C23.5537 20.4384 21.7979 22.5172 20.0421 23.5632C17.571 25.033 14.2804 25.4037 11.5102 24.543C10.5868 24.2517 9 23.5102 9 23.3779C9 23.3381 9.48119 23.2852 10.0665 23.2719C11.2891 23.2455 12.5116 22.9012 13.5521 22.2921L14.2545 21.8684L13.448 21.5904C12.3035 21.1931 11.276 20.2795 11.016 19.4189C10.9379 19.1409 10.9639 19.1276 11.6922 19.1276L12.4466 19.1144L11.8093 18.8098C11.0549 18.4259 10.3656 17.777 10.0275 17.115C9.78032 16.6384 9.46825 15.4334 9.55929 15.3408C9.58524 15.3011 9.85841 15.3805 10.1706 15.4864C11.0679 15.8174 11.185 15.738 10.6648 15.1819C9.68929 14.1756 9.39016 12.6794 9.85841 11.2626L10.0795 10.6271L10.9379 11.4877C12.6937 13.2223 14.7617 14.2551 17.1288 14.5596L17.7791 14.6391Z" fill="var(--textColor)" />
			</g>
		</symbol>
		<symbol id="instagram" viewBox="0 0 36 36">
			<g>
				<circle cx="18" cy="18" r="18" fill="var(--circleColor)" />
				<path d="M18.0018 13.8978C15.7316 13.8978 13.9005 15.7293 13.9005 18C13.9005 20.2707 15.7316 22.1022 18.0018 22.1022C20.2719 22.1022 22.1031 20.2707 22.1031 18C22.1031 15.7293 20.2719 13.8978 18.0018 13.8978ZM18.0018 20.667C16.5347 20.667 15.3354 19.4709 15.3354 18C15.3354 16.5291 16.5312 15.333 18.0018 15.333C19.4724 15.333 20.6682 16.5291 20.6682 18C20.6682 19.4709 19.4688 20.667 18.0018 20.667ZM23.2274 13.73C23.2274 14.262 22.7991 14.6868 22.2708 14.6868C21.739 14.6868 21.3142 14.2584 21.3142 13.73C21.3142 13.2016 21.7426 12.7732 22.2708 12.7732C22.7991 12.7732 23.2274 13.2016 23.2274 13.73ZM25.9438 14.7011C25.8831 13.4194 25.5904 12.2841 24.6516 11.3487C23.7165 10.4133 22.5814 10.1205 21.2999 10.0562C19.9793 9.98126 16.0207 9.98126 14.7001 10.0562C13.4222 10.1169 12.2871 10.4097 11.3484 11.3451C10.4096 12.2805 10.1205 13.4158 10.0562 14.6975C9.98126 16.0185 9.98126 19.9779 10.0562 21.2989C10.1169 22.5806 10.4096 23.7159 11.3484 24.6513C12.2871 25.5867 13.4186 25.8795 14.7001 25.9438C16.0207 26.0187 19.9793 26.0187 21.2999 25.9438C22.5814 25.8831 23.7165 25.5903 24.6516 24.6513C25.5868 23.7159 25.8795 22.5806 25.9438 21.2989C26.0187 19.9779 26.0187 16.0221 25.9438 14.7011ZM24.2376 22.7163C23.9592 23.416 23.4202 23.9551 22.717 24.2372C21.664 24.6549 19.1654 24.5585 18.0018 24.5585C16.8381 24.5585 14.336 24.6513 13.2866 24.2372C12.5869 23.9587 12.048 23.4196 11.766 22.7163C11.3484 21.6631 11.4447 19.1639 11.4447 18C11.4447 16.8361 11.3519 14.3334 11.766 13.2837C12.0444 12.584 12.5834 12.0449 13.2866 11.7628C14.3395 11.3451 16.8381 11.4415 18.0018 11.4415C19.1654 11.4415 21.6676 11.3487 22.717 11.7628C23.4166 12.0413 23.9556 12.5804 24.2376 13.2837C24.6552 14.3369 24.5588 16.8361 24.5588 18C24.5588 19.1639 24.6552 21.6666 24.2376 22.7163Z" fill="var(--textColor)" />
			</g>
		</symbol>
	</defs>
</svg>

<svg xmlns="http://www.w3.org/2000/svg"><defs><symbol id="facebook" viewBox="0 0 36 36"><circle cx="18" cy="18" r="18" fill="var(--circleColor)"/><path d="M19.65 28V17.999h2.958L23 14.552h-3.35l.005-1.725c0-.899.091-1.38 1.475-1.38h1.85V8h-2.96c-3.554 0-4.805 1.672-4.805 4.483v2.07H13v3.446h2.215V28h4.435z" fill="var(--textColor)"/></symbol><symbol id="tweeter" viewBox="0 0 36 36"><circle cx="18" cy="18" r="18" fill="var(--circleColor)"/><path fill-rule="evenodd" clip-rule="evenodd" d="M17.78 14.64l-.04-.65c-.117-1.681.91-3.217 2.536-3.813.599-.212 1.613-.238 2.276-.053.26.08.755.344 1.106.583l.637.436.702-.225c.39-.119.91-.317 1.145-.45.221-.119.416-.185.416-.145 0 .225-.481.993-.884 1.416-.547.596-.39.65.715.252.663-.225.676-.225.546.026-.078.133-.481.596-.91 1.02-.728.728-.767.808-.767 1.417 0 .94-.443 2.9-.885 3.972-.82 2.012-2.575 4.091-4.33 5.137-2.472 1.47-5.763 1.84-8.533.98C10.587 24.252 9 23.51 9 23.378c0-.04.481-.093 1.066-.106a7.275 7.275 0 003.486-.98l.703-.424-.807-.278c-1.145-.397-2.172-1.31-2.432-2.171-.078-.278-.052-.291.676-.291l.755-.014-.638-.304c-.754-.384-1.443-1.033-1.781-1.695-.248-.477-.56-1.682-.469-1.774.026-.04.3.04.612.145.897.331 1.014.252.494-.304-.976-1.006-1.275-2.503-.807-3.92l.221-.635.859.86c1.756 1.735 3.824 2.768 6.19 3.073l.651.08z" fill="var(--textColor)"/></symbol><symbol id="instagram" viewBox="0 0 36 36"><circle cx="18" cy="18" r="18" fill="var(--circleColor)"/><path d="M18.002 13.898A4.095 4.095 0 0013.9 18a4.095 4.095 0 004.1 4.102A4.095 4.095 0 0022.104 18a4.095 4.095 0 00-4.101-4.102zm0 6.769A2.672 2.672 0 0115.335 18a2.67 2.67 0 012.667-2.667A2.67 2.67 0 0120.668 18c0 1.47-1.2 2.667-2.666 2.667zm5.225-6.937a.954.954 0 01-.956.957.957.957 0 11.957-.957zm2.717.971c-.06-1.282-.354-2.417-1.292-3.352-.936-.936-2.07-1.229-3.352-1.293-1.32-.075-5.28-.075-6.6 0-1.278.06-2.413.354-3.352 1.29-.938.934-1.228 2.07-1.292 3.351-.075 1.322-.075 5.28 0 6.602.06 1.282.354 2.417 1.292 3.352.94.936 2.07 1.229 3.352 1.293 1.32.075 5.28.075 6.6 0 1.281-.06 2.416-.354 3.352-1.293.935-.935 1.227-2.07 1.292-3.352.075-1.321.075-5.277 0-6.598zm-1.706 8.015a2.7 2.7 0 01-1.521 1.521c-1.053.418-3.552.322-4.715.322-1.164 0-3.666.092-4.715-.322a2.7 2.7 0 01-1.521-1.52c-.418-1.054-.321-3.553-.321-4.717 0-1.164-.093-3.667.321-4.716a2.7 2.7 0 011.52-1.521c1.053-.418 3.552-.322 4.716-.322 1.163 0 3.666-.092 4.715.322a2.7 2.7 0 011.52 1.52c.418 1.054.322 3.553.322 4.717 0 1.164.096 3.667-.321 4.716z" fill="var(--textColor)"/></symbol></defs></svg>
